X:94
T:score181
L:1/8
Q:1/4=96
M:6/8
I:linebreak $
K:Db
 d3 f=ef | d3 f=ef | efg =gba | a2 g f2 A |$ d3 f=ef | d3 f=ef | ecA ABc | dAf d3 |] %8
